img/icons/media/loop.svg

<svg fill="none" viewBox="0 0 16 16" xmlns="http://www.w3.org/2000/svg"><path d="m11 4h-2.29l2.29-2.29c0.194-0.194 0.194-0.513 0-0.707-0.194-0.194-0.513-0.194-0.707 0l-3.15 3.15c-0.0466 0.0464-0.0835 0.102-0.109 0.162s-0.0378 0.126-0.0375 0.192c0 0.128 0.048 0.257 0.146 0.354l4e-3 2e-3 3.14 3.14c0.194 0.194 0.513 0.194 0.707 0s0.194-0.513 0-0.707l-2.29-2.29h2.29c2.21 0 4 1.79 4 4s-1.79 4-4 4h-6c-2.21 0-4-1.79-4-4 0-2.04 1.53-3.72 3.5-3.97 0.274-0.0342 0.499-0.255 0.499-0.531s-0.225-0.503-0.499-0.475c-2.52 0.253-4.5 2.39-4.5 4.98 0 2.75 2.25 5 5 5h6c2.75 0 5-2.25 5-5s-2.25-5-5-5z" fill="#000"/></svg>

<svg xmlns="http://www.w3.org/2000/svg" viewBox="0 0 16 16" fill="none">
  <path fill="#000"
    d="M11 4H8.707L11 1.707A.502.502 0 0 0 11 1a.502.502 0 0 0-.707 0L7.146 4.146A.496.496 0 0 0 7 4.5c0 .128.048.257.146.354l.004.002L10.293 8A.502.502 0 0 0 11 8a.502.502 0 0 0 0-.707L8.707 5H11c2.206 0 4 1.794 4 4s-1.794 4-4 4H5c-2.206 0-4-1.794-4-4a4.005 4.005 0 0 1 3.501-3.969c.274-.034.499-.255.499-.53a.464.464 0 0 0-.5-.476C1.984 4.278 0 6.42 0 9c0 2.75 2.25 5 5 5h6c2.75 0 5-2.25 5-5s-2.25-5-5-5Z" />
</svg>
